assets/flowers/january_left.svg

<?xml version="1.0" encoding="UTF-8" standalone="no"?>
<svg
   viewBox="0 0 334 656"
   width="334"
   height="656"
   version="1.1"
   id="svg11"
   sodipodi:docname="january_left.svg"
   inkscape:version="1.4.2 (f4327f4, 2025-05-13)"
   xmlns:inkscape="http://www.inkscape.org/namespaces/inkscape"
   xmlns:sodipodi="http://sodipodi.sourceforge.net/DTD/sodipodi-0.dtd"
   xmlns="http://www.w3.org/2000/svg"
   xmlns:svg="http://www.w3.org/2000/svg">
  <defs
     id="defs11" />
  <sodipodi:namedview
     id="namedview11"
     pagecolor="#ffffff"
     bordercolor="#000000"
     borderopacity="0.25"
     inkscape:showpageshadow="2"
     inkscape:pageopacity="0.0"
     inkscape:pagecheckerboard="0"
     inkscape:deskcolor="#d1d1d1"
     inkscape:zoom="2.4603659"
     inkscape:cx="326.171"
     inkscape:cy="156.68401"
     inkscape:window-width="1920"
     inkscape:window-height="1009"
     inkscape:window-x="1912"
     inkscape:window-y="-8"
     inkscape:window-maximized="1"
     inkscape:current-layer="svg11" />
  <path
     d="m 170.80804,17.789257 c 0.2815,-4.429774 3.90998,-0.636428 6.1437,2.25311 3.01087,3.894878 4.29724,6.061738 5.98231,10.742083 C 185.10405,36.61445 187.67,50.33 189,60 c 1.33,9.67 1.5,21.67 1,29 -0.5,7.33 -2.67,12 -4,15 -1.33,3 -3.33,2.5 -4,3"
     fill="none"
     stroke="#000000"
     stroke-width="4.00"
     stroke-linecap="round"
     stroke-linejoin="round"
     id="path1"
     style="stroke-width:8;stroke-dasharray:none"
     sodipodi:nodetypes="csssssc" />
  <path
     d="m 140.58659,218.02763 c -0.48348,1.32427 -3.1571,6.46295 -4.01769,11.25977 -0.39324,2.19186 -0.8237,3.92305 -0.64453,8.9448 0.12842,3.59936 0.17673,5.9804 4.07563,20.7678 3.8581,14.63263 15.93456,50.85711 20.76456,66.18711 C 165.59456,340.51711 166.67,345 169,351 c 2.33,6 6.81289,9.001 8.81289,9.171 2,0.17 5.22738,-1.17905 5.72738,-8.67905 0.5,-7.5 0.54745,-25.95034 -0.2815,-34.92815 -0.79394,-8.59862 -0.92877,-9.42401 -4.83622,-23.66045 -3.92295,-14.29295 -23.03322,-47.54624 -29.20322,-59.71624 -6.17,-12.17 -7.22885,-14.24001 -8.55885,-15.57001"
     fill="none"
     stroke="#000000"
     stroke-width="4.47"
     stroke-linecap="round"
     stroke-linejoin="round"
     id="path2"
     style="stroke-width:8;stroke-dasharray:none"
     sodipodi:nodetypes="cssssssssssc" />
  <path
     d="m 221.36181,309.19393 c 0.67,-0.17 8.7065,-14.91664 10.29663,-17.54138 2.09815,-3.4633 -0.1759,0.63485 7.9941,-13.36515 C 247.82254,264.2874 270.17,219.5 278,206 c 7.83,-13.5 5,-7.83 7,-9 2,-1.17 2.67,2.17 5,2 2.33,-0.17 4.33,0.83 9,-3 4.67,-3.83 15.83,-15.17 19,-20 3.17,-4.83 1.17,-7.83 0,-9 -1.17,-1.17 -2.67,-0.33 -7,2 -4.33,2.33 -15.5,11 -19,12 -3.5,1 -0.92368,-2.34448 -0.27261,-4.78067 C 292.66705,172.70322 293,171.33 294,166 c 1,-5.33 2.83,-17.67 2,-23 -0.83,-5.33 -4,-8 -7,-9 -3,-1 -7.33,0.67 -11,3 -3.67,2.33 -8,7 -11,11 -3,4 -3.5,9.67 -7,13 -3.5,3.33 -9.67,3.33 -14,7 -4.33,3.67 -9,9.67 -12,15 -3,5.33 -5,10.17 -6,17 -1,6.83 -2.90738,25.95603 0,24 1.35347,-0.91059 4.07032,-1.71249 6.44114,-4 1.50074,-1.448 3.05886,-2.17 5.55886,-5 2.5,-2.83 7.17,-7.83 10,-12 2.83,-4.17 5.17,-7.67 7,-13 1.83,-5.33 3.83,-14.5 4,-19 0.17,-4.5 -2.5,-6.67 -3,-8"
     fill="none"
     stroke="#000000"
     stroke-width="4.47"
     stroke-linecap="round"
     stroke-linejoin="round"
     id="path3"
     style="stroke-width:8;stroke-dasharray:none"
     sodipodi:nodetypes="cssssssssssssssssssssssssssc" />
  <path
     d="m 161,555 c -0.5,-3 -2.67,-3.83 -3,-18 -0.33,-14.17 -2,-43.17 1,-67 3,-23.83 8.93791,-58.19268 13.71957,-73.44828 5.18179,-16.5322 9.91368,-25.74559 12.69864,-30.3172 2.87186,-4.71424 -7.83065,-4.01723 -8.19888,-6.55546"
     fill="none"
     stroke="#000000"
     stroke-width="4.00"
     stroke-linecap="round"
     stroke-linejoin="round"
     id="path4"
     style="stroke-width:8;stroke-dasharray:none"
     sodipodi:nodetypes="cssssc" />
  <path
     d="m 158,648 c 2.67,-5.67 9.67,-17.83 16,-34 6.33,-16.17 14.67,-36.33 22,-63 7.33,-26.67 17.33,-70.5 22,-97 4.67,-26.5 5,-39.17 6,-62 1,-22.83 0.33,-61.67 0,-75 -0.33,-13.33 0.5322,-11.59377 -1.1378,-9.23914 -0.9711,1.36922 -4.89277,5.40506 -8.15092,9.93431 C 211.59499,322.02721 206.17,329.17 202,337 c -4.17,7.83 -15.60471,27.5886 -19.24907,34.14746"
     fill="none"
     stroke="#000000"
     stroke-width="4.00"
     stroke-linecap="round"
     stroke-linejoin="round"
     id="path5"
     style="stroke-width:8;stroke-dasharray:none"
     sodipodi:nodetypes="cssssssssc" />
  <path
     d="m 170.66444,18.189592 c 0,8.83 1.1922,52.004572 0.8622,61.334572 -0.33,9.33 -0.16618,2.284909 -1.69517,0.2057 -0.96169,-1.307768 1.52316,4.228389 -2.64684,-2.101611 C 163.01463,71.298253 151.33,51.5 146,43 c -5.33,-8.5 -9,-11.5 -13,-15 -4,-3.5 -6.5,-5.17 -11,-6 -4.5,-0.83 -12,-0.67 -16,1 -4,1.67 -6.17,5.67 -8,9 -1.83,3.33 -0.67,7.83 -3,11 -2.33,3.17 -9,4.33 -11,8 -2,3.67 0.33,11.17 -1,14 -1.33,2.83 -4.67,1.33 -7,3 -2.33,1.67 -4.33,5.67 -7,7 -2.67,1.33 -4.67,-0.83 -9,1 -4.33,1.83 -10.67,5.17 -17,10 -6.33,4.83 -15,11 -21,19 -6,8 -12.33,22.33 -15,29 -2.67,6.67 -1.5,8.33 -1,11 0.5,2.67 0,5.5 4,5 4,-0.5 13.67,-4.67 20,-8 6.33,-3.33 13.83,-5.33 18,-12 4.17,-6.67 3.67,-20 7,-28 3.33,-8 10.83,-15.5 13,-20 2.17,-4.5 0,-5.83 0,-7"
     fill="none"
     stroke="#000000"
     stroke-width="4.47"
     stroke-linecap="round"
     stroke-linejoin="round"
     id="path6"
     style="stroke-width:8;stroke-dasharray:none"
     sodipodi:nodetypes="csssssssssssssssssssssssc" />
  <path
     d="m 94,44 c 0.67,1.17 3.33,4.33 4,7 0.67,2.67 0.83,6.33 0,9 -0.83,2.67 -4.67,2.83 -5,7 -0.33,4.17 1.83,13.67 3,18 1.17,4.33 4,5.5 4,8 0,2.5 -3.33,3.17 -4,7 -0.67,3.83 0.67,10.17 0,16 -0.67,5.83 -0.67,11.67 -4,19 -3.33,7.33 -13.33,20.83 -16,25"
     fill="none"
     stroke="#000000"
     stroke-width="4.47"
     stroke-linecap="round"
     stroke-linejoin="round"
     id="path7"
     style="stroke-width:8;stroke-dasharray:none"
     sodipodi:nodetypes="cssssssssc" />
  <path
     d="m 83,65 11,3"
     fill="none"
     stroke="#000000"
     stroke-width="8.00"
     stroke-linecap="round"
     stroke-linejoin="round"
     id="path8"
     style="stroke-width:8;stroke-dasharray:none"
     sodipodi:nodetypes="cc" />
  <path
     d="M 169.0347,80.339529 C 171.05081,83.458724 174.5,95.83 176,100 c 1.5,4.17 1.75306,4.5036 2.33953,6.05081 2.48359,6.55209 1.2054,3.90442 4.66047,13.94919 3.43967,10 14.15712,38.00406 17,47 3.20884,10.15399 5.82505,21.33932 9,33 3,11.83 5.74745,32.09356 7.57745,44.59356 C 218.40745,257.09356 219,267.5 220,275 c 0.62379,6.64327 1.38969,11.56716 2.26381,19.95174 0.40051,3.84168 2.15278,14.52196 1.32278,18.19196"
     fill="none"
     stroke="#000000"
     stroke-width="4.00"
     stroke-linecap="round"
     stroke-linejoin="round"
     id="path9"
     style="stroke-width:8;stroke-dasharray:none"
     sodipodi:nodetypes="cssssssssc" />
  <path
     d="m 100,93 c 1,1 4.17,2 6,6 1.83,4 4.17,8.67 5,18 0.83,9.33 1,28.67 0,38 -1,9.33 -3.67,13.5 -6,18 -2.33,4.5 -5.83,7.67 -8,9 -2.17,1.33 -2.83,0.5 -5,-1 -2.17,-1.5 -5.5,-4.33 -8,-8 -2.5,-3.67 -4,-12.5 -7,-14 -3,-1.5 -8.33,4.17 -11,5 -2.67,0.83 -3.33,0.83 -5,0 -1.67,-0.83 -3.33,-2.17 -5,-5 -1.67,-2.83 -3.67,-7.17 -5,-12 -1.33,-4.83 -2.5,-14.17 -3,-17"
     fill="none"
     stroke="#000000"
     stroke-width="4.47"
     stroke-linecap="round"
     stroke-linejoin="round"
     id="path10"
     style="stroke-width:8;stroke-dasharray:none"
     sodipodi:nodetypes="cssssssssssssc" />
  <path
     d="M 290.78067,178.96778 C 289.78067,180.46778 287.33,187 286,190 c -1.33,3 -2.88933,7.19517 -3.21933,8.69517"
     fill="none"
     stroke="#000000"
     stroke-width="8.94"
     stroke-linecap="round"
     stroke-linejoin="round"
     id="path11"
     style="stroke-width:8;stroke-dasharray:none"
     sodipodi:nodetypes="csc" />
</svg>

<?xml version="1.0" encoding="UTF-8"?>
<svg xmlns="http://www.w3.org/2000/svg" viewBox="0 0 334 656" width="334" height="656">
  <path d="M167.00,5.00 C168.00,8.33 171.50,21.67 173.00,25.00 C174.50,28.33 174.50,24.00 176.00,25.00 C177.50,26.00 179.83,25.17 182.00,31.00 C184.17,36.83 187.67,50.33 189.00,60.00 C190.33,69.67 190.50,81.67 190.00,89.00 C189.50,96.33 187.33,101.00 186.00,104.00 C184.67,107.00 182.67,106.50 182.00,107.00" fill="none" stroke="black" stroke-width="4.00" stroke-linecap="round" stroke-linejoin="round"/>
  <path d="M138.00,210.00 C138.33,212.67 140.17,222.83 140.00,226.00 C139.83,229.17 137.50,226.83 137.00,229.00 C136.50,231.17 136.50,234.00 137.00,239.00 C137.50,244.00 135.67,244.50 140.00,259.00 C144.33,273.50 158.17,310.67 163.00,326.00 C167.83,341.33 166.67,345.00 169.00,351.00 C171.33,357.00 175.00,361.83 177.00,362.00 C179.00,362.17 180.50,359.50 181.00,352.00 C181.50,344.50 180.67,325.83 180.00,317.00 C179.33,308.17 182.33,312.83 177.00,299.00 C171.67,285.17 154.17,246.17 148.00,234.00 C141.83,221.83 141.33,227.33 140.00,226.00" fill="none" stroke="black" stroke-width="4.47" stroke-linecap="round" stroke-linejoin="round"/>
  <path d="M225.00,291.00 C225.67,290.83 226.83,292.17 229.00,290.00 C231.17,287.83 229.83,292.00 238.00,278.00 C246.17,264.00 270.17,219.50 278.00,206.00 C285.83,192.50 283.00,198.17 285.00,197.00 C287.00,195.83 287.67,199.17 290.00,199.00 C292.33,198.83 294.33,199.83 299.00,196.00 C303.67,192.17 314.83,180.83 318.00,176.00 C321.17,171.17 319.17,168.17 318.00,167.00 C316.83,165.83 315.33,166.67 311.00,169.00 C306.67,171.33 295.50,180.00 292.00,181.00 C288.50,182.00 289.67,177.50 290.00,175.00 C290.33,172.50 293.00,171.33 294.00,166.00 C295.00,160.67 296.83,148.33 296.00,143.00 C295.17,137.67 292.00,135.00 289.00,134.00 C286.00,133.00 281.67,134.67 278.00,137.00 C274.33,139.33 270.00,144.00 267.00,148.00 C264.00,152.00 263.50,157.67 260.00,161.00 C256.50,164.33 250.33,164.33 246.00,168.00 C241.67,171.67 237.00,177.67 234.00,183.00 C231.00,188.33 229.00,193.17 228.00,200.00 C227.00,206.83 227.83,220.50 228.00,224.00 C228.17,227.50 227.83,221.67 229.00,221.00 C230.17,220.33 233.17,221.00 235.00,220.00 C236.83,219.00 237.50,217.83 240.00,215.00 C242.50,212.17 247.17,207.17 250.00,203.00 C252.83,198.83 255.17,195.33 257.00,190.00 C258.83,184.67 260.83,175.50 261.00,171.00 C261.17,166.50 258.50,164.33 258.00,163.00" fill="none" stroke="black" stroke-width="4.47" stroke-linecap="round" stroke-linejoin="round"/>
  <path d="M161.00,555.00 C160.50,552.00 158.33,551.17 158.00,537.00 C157.67,522.83 156.00,493.83 159.00,470.00 C162.00,446.17 172.83,409.67 176.00,394.00 C179.17,378.33 178.00,381.50 178.00,376.00 C178.00,370.50 176.33,363.50 176.00,361.00" fill="none" stroke="black" stroke-width="4.00" stroke-linecap="round" stroke-linejoin="round"/>
  <path d="M158.00,648.00 C160.67,642.33 167.67,630.17 174.00,614.00 C180.33,597.83 188.67,577.67 196.00,551.00 C203.33,524.33 213.33,480.50 218.00,454.00 C222.67,427.50 223.00,414.83 224.00,392.00 C225.00,369.17 224.33,330.33 224.00,317.00 C223.67,303.67 223.67,311.83 222.00,312.00 C220.33,312.17 217.33,313.83 214.00,318.00 C210.67,322.17 206.17,329.17 202.00,337.00 C197.83,344.83 193.00,359.00 189.00,365.00 C185.00,371.00 179.83,371.67 178.00,373.00" fill="none" stroke="black" stroke-width="4.00" stroke-linecap="round" stroke-linejoin="round"/>
  <path d="M173.00,25.00 C173.00,33.83 173.33,68.67 173.00,78.00 C172.67,87.33 172.33,80.83 171.00,81.00 C169.67,81.17 169.17,85.33 165.00,79.00 C160.83,72.67 151.33,51.50 146.00,43.00 C140.67,34.50 137.00,31.50 133.00,28.00 C129.00,24.50 126.50,22.83 122.00,22.00 C117.50,21.17 110.00,21.33 106.00,23.00 C102.00,24.67 99.83,28.67 98.00,32.00 C96.17,35.33 97.33,39.83 95.00,43.00 C92.67,46.17 86.00,47.33 84.00,51.00 C82.00,54.67 84.33,62.17 83.00,65.00 C81.67,67.83 78.33,66.33 76.00,68.00 C73.67,69.67 71.67,73.67 69.00,75.00 C66.33,76.33 64.33,74.17 60.00,76.00 C55.67,77.83 49.33,81.17 43.00,86.00 C36.67,90.83 28.00,97.00 22.00,105.00 C16.00,113.00 9.67,127.33 7.00,134.00 C4.33,140.67 5.50,142.33 6.00,145.00 C6.50,147.67 6.00,150.50 10.00,150.00 C14.00,149.50 23.67,145.33 30.00,142.00 C36.33,138.67 43.83,136.67 48.00,130.00 C52.17,123.33 51.67,110.00 55.00,102.00 C58.33,94.00 65.83,86.50 68.00,82.00 C70.17,77.50 68.00,76.17 68.00,75.00" fill="none" stroke="black" stroke-width="4.47" stroke-linecap="round" stroke-linejoin="round"/>
  <path d="M94.00,44.00 C94.67,45.17 97.33,48.33 98.00,51.00 C98.67,53.67 98.83,57.33 98.00,60.00 C97.17,62.67 93.33,62.83 93.00,67.00 C92.67,71.17 94.83,80.67 96.00,85.00 C97.17,89.33 100.00,90.50 100.00,93.00 C100.00,95.50 96.67,96.17 96.00,100.00 C95.33,103.83 96.67,110.17 96.00,116.00 C95.33,121.83 95.33,127.67 92.00,135.00 C88.67,142.33 78.67,155.83 76.00,160.00" fill="none" stroke="black" stroke-width="4.47" stroke-linecap="round" stroke-linejoin="round"/>
  <path d="M83.00,65.00 L94.00,68.00" fill="none" stroke="black" stroke-width="8.00" stroke-linecap="round" stroke-linejoin="round"/>
  <path d="M170.00,81.00 C171.00,84.17 174.50,95.83 176.00,100.00 C177.50,104.17 177.83,104.83 179.00,106.00 C180.17,107.17 182.33,104.67 183.00,107.00 C183.67,109.33 180.17,110.00 183.00,120.00 C185.83,130.00 197.17,158.00 200.00,167.00 C202.83,176.00 198.50,168.50 200.00,174.00 C201.50,179.50 206.00,188.17 209.00,200.00 C212.00,211.83 216.17,232.50 218.00,245.00 C219.83,257.50 219.00,267.50 220.00,275.00 C221.00,282.50 223.00,287.33 224.00,290.00 C225.00,292.67 226.50,287.17 226.00,291.00 C225.50,294.83 221.83,309.33 221.00,313.00" fill="none" stroke="black" stroke-width="4.00" stroke-linecap="round" stroke-linejoin="round"/>
  <path d="M100.00,93.00 C101.00,94.00 104.17,95.00 106.00,99.00 C107.83,103.00 110.17,107.67 111.00,117.00 C111.83,126.33 112.00,145.67 111.00,155.00 C110.00,164.33 107.33,168.50 105.00,173.00 C102.67,177.50 99.17,180.67 97.00,182.00 C94.83,183.33 94.17,182.50 92.00,181.00 C89.83,179.50 86.50,176.67 84.00,173.00 C81.50,169.33 80.00,160.50 77.00,159.00 C74.00,157.50 68.67,163.17 66.00,164.00 C63.33,164.83 62.67,164.83 61.00,164.00 C59.33,163.17 57.67,161.83 56.00,159.00 C54.33,156.17 52.33,151.83 51.00,147.00 C49.67,142.17 48.50,132.83 48.00,130.00" fill="none" stroke="black" stroke-width="4.47" stroke-linecap="round" stroke-linejoin="round"/>
  <path d="M292.00,181.00 C291.00,182.50 287.33,187.00 286.00,190.00 C284.67,193.00 284.33,197.50 284.00,199.00" fill="none" stroke="black" stroke-width="8.94" stroke-linecap="round" stroke-linejoin="round"/>
</svg>
